assets/assets/svg/tree_name.svg

<svg fill="none" height="19" viewBox="0 0 15 19" width="15" xmlns="http://www.w3.org/2000/svg"><path clip-rule="evenodd" d="m14.0318 3.95929c.0462.14907.0799.25766.0799.32307v13.38784c0 .3153-.2558.571-.571.571h-9.33915c-1.82713 0-3.313611-1.4865-3.313611-3.3136v-12.50092c0-1.33809 1.088591-2.42668 2.426681-2.42668h10.22608c.3968 0 .6725.395496.5361.767651-.5609 1.529019-.2166 2.638759-.045 3.191639zm-1.2554-2.81727h-9.46178c-.70833 0-1.28466.57629-1.28466 1.28466 0 .70838.57629 1.28467 1.28466 1.28467h9.46178c-.1952-.85494-.1952-1.71439 0-2.56933zm-10.74644 13.78558c0 1.1974.97418 2.1716 2.17159 2.1716h8.76815l-.0001-12.2458h-9.65498c-.47158 0-.91179-.13568-1.28466-.36933zm7.70348-8.92708c.2025-.04164.41146.02913.54686.18523 1.2276 1.41646 1.6234 3.40496 1.0328 5.18955-.3555 1.0743-.9665 2.009-2.05288 2.3557-.40827.1303-.86248.1653-1.32278.0877.04718.6026.04725 1.2006-.00018 1.7924-.02395.2988-.27391.5254-.56855.5254-.33457 0-.59638-.2848-.56979-.6166.04407-.5497.04214-1.1065-.00489-1.6686-1.03068.0769-1.98173-.392-2.55877-1.3098-1.26525-2.0122-1.03121-4.60736.48411-6.35575.13533-.15614.34439-.22723.54685-.18523.82986.17113 1.59233.54289 2.23325 1.06483.64096-.52215 1.40394-.89363 2.23397-1.06483zm-4.36519 1.20209c-1.00562 1.37638-1.08938 3.26289-.1662 4.73109.38054.6053.93257.8036 1.43695.7841-.15346-.8106-.39857-1.6299-.73507-2.453-.11934-.29187.02056-.62527.31245-.74461.29193-.11927.62529.02056.74463.31249.3375.82552.59068 1.64942.75955 2.46772.36106-.3026.63389-.7784.58186-1.4359-.13604-1.71814-1.30529-3.17771-2.93417-3.66189zm3.58334 5.42999c.31288-.1084.61191-.3266.84606-.6989.92185-1.4663.84105-3.35243-.1662-4.73109-.48361.14371-.93157.37668-1.3251.68035 1.02053 1.28763 1.61017 3.35564.64524 4.74964z" fill="#304351" fill-rule="evenodd"/></svg>

<svg width="15" height="19" viewBox="0 0 15 19" fill="none" xmlns="http://www.w3.org/2000/svg">
<path fill-rule="evenodd" clip-rule="evenodd" d="M14.0318 3.95929C14.078 4.10836 14.1117 4.21695 14.1117 4.28236V17.6702C14.1117 17.9855 13.8559 18.2412 13.5407 18.2412H4.20155C2.37442 18.2412 0.887939 16.7547 0.887939 14.9276V2.42668C0.887939 1.08859 1.97653 0 3.31462 0H13.5407C13.9375 0 14.2132 0.395496 14.0768 0.767651C13.5159 2.29667 13.8602 3.40641 14.0318 3.95929ZM12.7764 1.14202H3.31462C2.60629 1.14202 2.02996 1.71831 2.02996 2.42668C2.02996 3.13506 2.60625 3.71135 3.31462 3.71135H12.7764C12.5812 2.85641 12.5812 1.99696 12.7764 1.14202ZM2.02996 14.9276C2.02996 16.125 3.00414 17.0992 4.20155 17.0992V17.0992H12.9697L12.9696 4.8534H3.31462C2.84304 4.8534 2.40283 4.71772 2.02996 4.48407V14.9276ZM9.73344 6.00052C9.93594 5.95888 10.1449 6.02965 10.2803 6.18575C11.5079 7.60221 11.9037 9.59071 11.3131 11.3753C10.9576 12.4496 10.3466 13.3843 9.26022 13.731C8.85195 13.8613 8.39774 13.8963 7.93744 13.8187C7.98462 14.4213 7.98469 15.0193 7.93726 15.6111C7.91331 15.9099 7.66335 16.1365 7.36871 16.1365C7.03414 16.1365 6.77233 15.8517 6.79892 15.5199C6.84299 14.9702 6.84106 14.4134 6.79403 13.8513C5.76335 13.9282 4.8123 13.4593 4.23526 12.5415C2.97001 10.5293 3.20405 7.93414 4.71937 6.18575C4.8547 6.02961 5.06376 5.95852 5.26622 6.00052C6.09608 6.17165 6.85855 6.54341 7.49947 7.06535C8.14043 6.5432 8.90341 6.17172 9.73344 6.00052ZM5.36825 7.20261C4.36263 8.57899 4.27887 10.4655 5.20205 11.9337C5.58259 12.539 6.13462 12.7373 6.639 12.7178C6.48554 11.9072 6.24043 11.0879 5.90393 10.2648C5.78459 9.97293 5.92449 9.63953 6.21638 9.52019C6.50831 9.40092 6.84167 9.54075 6.96101 9.83268C7.29851 10.6582 7.55169 11.4821 7.72056 12.3004C8.08162 11.9978 8.35445 11.522 8.30242 10.8645C8.16638 9.14636 6.99713 7.68679 5.36825 7.20261ZM8.95159 12.6326C9.26447 12.5242 9.5635 12.306 9.79765 11.9337C10.7195 10.4674 10.6387 8.58127 9.63145 7.20261C9.14784 7.34632 8.69988 7.57929 8.30635 7.88296C9.32688 9.17059 9.91652 11.2386 8.95159 12.6326Z" fill="#304351"/>
</svg>
